X:1
T:Blessèd Calvary
T:Lance Brenton Latham
T:Blessèd Calvary
T:Public Domain
T:Public Domain
C:Lance Brenton Latham
Z:Public Domain
%%score ( 1 2 ) ( 3 4 )
L:1/8
M:3/4
K:G
V:1 treble 
V:2 treble 
V:3 bass 
V:4 bass 
V:1
 [B,D]2 | [B,D]3 [B,E] [B,F]2 | [B,G]2 [DB]2 [^DA]2 | [EG]4 [CE]2 | [B,D]4 [B,D]2 | %5
w: 1.~I|look at the|cross up- on|Cal- va-|ry, And|
w: 2.~I|find at the|cross bless- èd|vic- to-|ry, And|
w: 3.~The|cross is my|hope for e-|ter- ni-|ty, No|
 [B,D]3 [B,E] [B,F]2 | [DG]2 [DA]2 [DB]2 | F2 A2 G2 | [Fd]4 [Ec]2 | [DB]3 [DB] [DB]2 | %10
w: oh, what a|won- der di-|vine, * *|To think|of the wealth|
w: grace for each|step of my|way. * *|The fount|of God’s love|
w: mer- it have|I of my|own; * *|The shed|blood of Christ|
 [^DB]4 [DA]2 | [EA]4 [CG]2 | [^A,G]4 [A,E]2 | [B,D]3 [CE] [CF]2 | [CE] [CD]3 [CA]2 | [B,G]6- | %16
w: it holds|for me—|The rich-|es of Heav-|en are mine.||
w: is flow-|ing free,|And sweet-|er it grows|day by day.|Bless-|
w: my on-|ly plea—|My trust|is in Je-|sus a- lone.||
 [B,G]4 ||"^Refrain" [DB][DB] | [DB]4 [B,G]2 | [B,G]4 [Gd][Gd] | [Gd]4 [GB]2 | [GB]4 [GB][GB] | %22
w: ||||||
w: |èd Cal-|va- ry!|Pre- cious Cal-|va- ry!|’Neath thy sha-|
w: ||||||
 [GB]3 [GA] G2 | [DG]3 [DA] [DB]2 | F2 A2 G2 | [Fd]4 [DB][DB] | [DB]4 [B,G]2 | [B,G]4 [Gd][Gd] | %28
w: ||||||
w: dow I’ll ev-|a- bide. Bless-|èd * *|Cal- va- ry!|Pre- cious|Cal- va- ry!|
w: ||||||
 [Gd]4 [DB]2 | [DB]4 [B,D]2 | [CD]3 [CE] [CF]2 | [CE] [CD]3 [CA]2 | [B,G]6- | [B,G]4 |] %34
w: ||||||
w: ’Twas there|Je- sus|suf- fered and|died. * *|||
w: ||||||
V:2
 x2 | x6 | x6 | x6 | x6 | x6 | x6 | d6- | x6 | x6 | x6 | x6 | x6 | x6 | x6 | x6 | x4 || x2 | x6 | %19
w: |||||||||||||||||||
w: |||||||||||||||||||
 x6 | x6 | x6 | x4 G2 | x6 | d6- | x6 | x6 | x6 | x6 | x6 | x6 | x6 | x6 | x4 |] %34
w: |||||||||||||||
w: |||er||||||||||||
V:3
 [G,,G,]2 | [G,,G,]3 [G,,G,] [G,,G,]2 | [G,,D,]2 [G,,G,]2 [B,,G,]2 | [C,C]4 [E,G,]2 | %4
 G,4 [G,,G,]2 | [G,,G,]3 [G,,G,] [G,,G,]2 | [B,,G,]2 [D,F,]2 G,2 | A,2 C2 B,2 | [D,A,]4 [D,F,]2 | %9
 [G,,G,]3 [G,,G,] [G,,G,]2 | [B,,F,]4 [B,,F,]2 | [C,E,]4 [C,E,]2 | [^C,E,]4 [C,G,]2 | %13
 [D,G,]3 [D,G,] [D,A,]2 | [D,G,] [D,F,]3 [D,F,]2 | [G,,D,]6- | [G,,D,]4 || [G,,G,][G,,G,] | %18
 [G,,G,]4 [G,,D,]2 | [G,,D,]4 [G,B,][G,B,] | [E,G,]4 [G,D]2 | [G,D]4 [G,D][G,D] | %22
 [G,D]3 [G,C] [G,B,]2 | [B,,G,]3 [D,F,] G,2 | A,2 C2 B,2 | [D,A,]4 [G,,G,][G,,G,] | %26
 [G,,G,]4 [G,,D,]2 | [G,,D,]4 [G,B,][G,B,] | [G,B,]4 G,2 | G,4 G,2 | [D,F,]3 [D,G,] [D,A,]2 | %31
 [D,G,] [D,F,]3 [D,F,]2 | [G,,D,]6- | [G,,D,]4 |] %34
V:4
 x2 | x6 | x6 | x6 | G,4 x2 | x6 | x4 G,2 | D,6- | x6 | x6 | x6 | x6 | x6 | x6 | x6 | x6 | x4 || %17
 x2 | x6 | x6 | x6 | x6 | x6 | x4 G,2 | D,6- | x6 | x6 | x6 | x4 G,2 | G,4 G,2 | x6 | x6 | x6 | %33
 x4 |] %34

